packages/Snapp/src/RideIcon/index.svg

<?xml version="1.0" encoding="UTF-8"?>
<svg width="24px" height="24px" viewBox="0 0 24 24" version="1.1" xmlns="http://www.w3.org/2000/svg" xmlns:xlink="http://www.w3.org/1999/xlink">
    <title>Icons/24/Ride</title>
    <g id="Icons/24/Ride" stroke="none" stroke-width="1" fill="none" fill-rule="evenodd">
        <rect id="Container" fill-opacity="0" fill="#D8D8D8" fill-rule="nonzero" x="0" y="0" width="24" height="24"></rect>
        <path d="M19.6888889,4.13625 C19.4666667,3.4725 18.8444444,3 18.1111111,3 L5.88888889,3 C5.15555556,3 4.54444444,3.4725 4.31111111,4.13625 L2.12222222,10.515 C2.04444444,10.75125 2,10.99875 2,11.2575 L2,19.3125 C2,20.24625 2.74444444,21 3.66666667,21 C4.58888889,21 5.33333333,20.24625 5.33333333,19.3125 L5.33333333,18.75 L18.6666667,18.75 L18.6666667,19.3125 C18.6666667,20.235 19.4111111,21 20.3333333,21 C21.2444444,21 22,20.24625 22,19.3125 L22,11.2575 C22,11.01 21.9555556,10.75125 21.8777778,10.515 L19.6888889,4.13625 Z M5.88888889,15.375 C4.96666667,15.375 4.22222222,14.62125 4.22222222,13.6875 C4.22222222,12.75375 4.96666667,12 5.88888889,12 C6.81111111,12 7.55555556,12.75375 7.55555556,13.6875 C7.55555556,14.62125 6.81111111,15.375 5.88888889,15.375 Z M18.1111111,15.375 C17.1888889,15.375 16.4444444,14.62125 16.4444444,13.6875 C16.4444444,12.75375 17.1888889,12 18.1111111,12 C19.0333333,12 19.7777778,12.75375 19.7777778,13.6875 C19.7777778,14.62125 19.0333333,15.375 18.1111111,15.375 Z M4.22222222,9.75 L5.63333333,5.4525 C5.78888889,5.0025 6.21111111,4.6875 6.68888889,4.6875 L17.3111111,4.6875 C17.7888889,4.6875 18.2111111,5.0025 18.3666667,5.4525 L19.7777778,9.75 L4.22222222,9.75 Z" id="Combined-Shape" fill="#404040"></path>
    </g>
</svg>

<svg viewBox="0 0 24 24" xmlns="http://www.w3.org/2000/svg" fill="currentColor" focusable="false">
  <path d="M19.689 4.136A1.662 1.662 0 0018.11 3H5.89c-.733 0-1.345.473-1.578 1.136l-2.189 6.379a2.362 2.362 0 00-.122.742v8.056A1.674 1.674 0 003.667 21c.922 0 1.666-.754 1.666-1.688v-.562h13.334v.563c0 .922.744 1.687 1.666 1.687.911 0 1.667-.754 1.667-1.688v-8.055c0-.247-.044-.506-.122-.742l-2.19-6.379zm-13.8 11.239a1.675 1.675 0 01-1.667-1.688c0-.933.745-1.687 1.667-1.687s1.667.754 1.667 1.688c0 .933-.745 1.687-1.667 1.687zm12.222 0a1.675 1.675 0 01-1.667-1.688c0-.933.745-1.687 1.667-1.687s1.667.754 1.667 1.688c0 .933-.745 1.687-1.667 1.687zM4.222 9.75l1.411-4.298c.156-.45.578-.764 1.056-.764H17.31c.478 0 .9.315 1.056.764l1.41 4.298H4.223z" fill="none"/>
</svg>
